X:825
T:Reel 825
M:4/4
K:Ador
L:1/8
GEDC D2EC|A,DFD ADFA|GEE2 GC (3CCC |D2ED AdFD|GEFE DEFD|GEDF ADFA|GEDC CDA,D|| (3FED EF cAFG:||2 (3EFG AG A2|AB|cdec fcec|Acec dccB| (3cdc Ac  (3cdc AB|cAFG AGAG|Gccc Acdc|AGAB ABcd|ecdB cABc|AFEC D2D
